X: 1
P: Greenwood Side
C: Scots Guards I
C: arr. Terry Traub 4-29-04
M: 4/4
L: 1/8
K: Bm
|: f2|"Bm"B2 Bc B2 A2|"Bm"Bcde f4|"A"e3 f efed|"F#m"c2 A2 A2 f2|"Bm"B2 Bc B2 A2|"Bm"Bcde "D"f4|"A"e3 a "F#m"f2 ef|"Bm"d2 B2 B2 :|
|: de| "Bm"f3 d B2 f2|"Bm"B2 Bc "E"f4|"A"e3 f efed|"A"c2 A2 "F#m"A2 de|"Bm"f3 d B2 f2|"Bm"B2 Bc "D"f4|"A"e2 a2 "F#m"f2 ef|"Bm"d2 B2 B2 :|
